X:13
T:Cooley's Jig
R:jig
Z:Julie Ross
M:6/8
K:D
"Cooley's Jig"
e|: fef d2B|AFA ABd|efe edB|efe ede|
|: fef d2B|AFA ABd|efe edB|d3 d2e:||
|: fef a2e|fef a2f|efe edB|efe ede|
|1 fef a2e|fef a2f|efe edB|d3 d2e :|2 fef d2B|AFA ABd|efe edB|f2e d3||
